X: 190
T: A Fig For A Kiss
R: slip jig
M: 9/8
K: Edorian
G2B E2B BAG|F2A D2A AGF|G2B E2B BAG|B/c/dB AGF E2F|
G2B E2B BAG|F2A D2A AGF|G2B E2B BAG|B/c/dB AGF E2f||
g2e g2e edB|f2d dcd fed|g2e g2e edB|dBG GBd e2f|
g2e g2e edB|f2d dcd fed|gfe fed efg|B/c/dB AGF E2F||

